src/renderer/assets/images/walletTypes/novaWallet.svg

<svg width="32" height="32" viewBox="0 0 32 32" fill="none" xmlns="http://www.w3.org/2000/svg">
  <g clip-path="url(#clip0_4690_32581)">
    <mask id="mask0_4690_32581" style="mask-type:alpha" maskUnits="userSpaceOnUse" x="0" y="0" width="32" height="32">
      <circle cx="16" cy="16" r="16" fill="#FF0000"/>
    </mask>
    <g mask="url(#mask0_4690_32581)">
      <rect width="32" height="32" fill="url(#paint0_radial_4690_32581)"/>
    </g>
    <path d="M27.2001 16V16.2957C25.3722 16.5869 21.4477 17.2634 19.5168 18.0026C18.8269 18.2669 18.2804 18.809 18.0116 19.4944C17.2724 21.4164 16.5869 25.3633 16.2957 27.2001H15.7044C15.4132 25.3633 14.7277 21.4164 13.9885 19.4944C13.7197 18.809 13.1687 18.2625 12.4832 18.0026C10.5524 17.2634 6.62789 16.5869 4.80005 16.2957V15.7044C6.62789 15.4132 10.5524 14.7367 12.4832 13.9975C13.1732 13.7332 13.7197 13.1911 13.9885 12.5057C14.7277 10.5837 15.4132 6.63685 15.7044 4.80005H16.2957C16.5869 6.63685 17.2724 10.5837 18.0116 12.5057C18.2804 13.1911 18.8314 13.7376 19.5168 13.9975C21.4477 14.7367 25.3722 15.4132 27.2001 15.7044V16Z" fill="white"/>
  </g>
  <defs>
    <radialGradient id="paint0_radial_4690_32581" cx="0" cy="0" r="1" gradientUnits="userSpaceOnUse" gradientTransform="translate(0.804937 30.2291) scale(36.8035)">
      <stop offset="0.0533191" stop-color="#D7D3E9"/>
      <stop offset="0.1933" stop-color="#A19CDE"/>
      <stop offset="0.3834" stop-color="#696BD9"/>
      <stop offset="0.54" stop-color="#3A5AE7"/>
      <stop offset="0.7735" stop-color="#225FE7"/>
      <stop offset="1" stop-color="#0883D1"/>
    </radialGradient>
    <clipPath id="clip0_4690_32581">
      <rect width="32" height="32" fill="white"/>
    </clipPath>
  </defs>
</svg>

<svg xmlns="http://www.w3.org/2000/svg" width="32" height="32" fill="none"><g clip-path="url(#a)"><mask id="b" width="32" height="32" x="0" y="0" maskUnits="userSpaceOnUse" style="mask-type:alpha"><circle cx="16" cy="16" r="16" fill="red"/></mask><g mask="url(#b)"><path fill="url(#c)" d="M0 0h32v32H0z"/></g><path fill="#fff" d="M27.2 16v.296c-1.828.29-5.752.967-7.683 1.707a2.625 2.625 0 0 0-1.505 1.491c-.74 1.922-1.425 5.87-1.716 7.706h-.592c-.29-1.837-.976-5.784-1.716-7.706a2.626 2.626 0 0 0-1.505-1.491c-1.93-.74-5.855-1.416-7.683-1.707v-.592c1.828-.29 5.752-.967 7.683-1.707a2.625 2.625 0 0 0 1.505-1.491c.74-1.922 1.425-5.87 1.716-7.706h.592c.29 1.837.976 5.784 1.716 7.706.268.685.82 1.232 1.505 1.492 1.93.739 5.855 1.415 7.683 1.706V16Z"/></g><defs><radialGradient id="c" cx="0" cy="0" r="1" gradientTransform="translate(.805 30.23) scale(36.8035)" gradientUnits="userSpaceOnUse"><stop offset=".053" stop-color="#D7D3E9"/><stop offset=".193" stop-color="#A19CDE"/><stop offset=".383" stop-color="#696BD9"/><stop offset=".54" stop-color="#3A5AE7"/><stop offset=".773" stop-color="#225FE7"/><stop offset="1" stop-color="#0883D1"/></radialGradient><clipPath id="a"><path fill="#fff" d="M0 0h32v32H0z"/></clipPath></defs></svg>
